dist/svgs/org-users.svg

<svg xmlns="http://www.w3.org/2000/svg" viewBox="0 0 512 512"><path d="M411 470q2 8-2.5 14.5T396 493h-4q-16 0-19-15l-15-74q-5-7-11-10l-95-33q-13-5-20.5-15.5T224 322v-14q0-28 23-49 23-18 23-49v-39q0-27-18.5-45.5T206 107q-26 0-45 18.5T142 171v39q0 29 24 50 22 19 22 48v14q0 13-7.5 23.5T161 361l-95 33q-6 3-12 10l-15 74q-2 8-8 12.5T17 493t-12.5-8.5T2 470l16-77q0-1 .5-2t.5-2q11-22 34-30l95-34q2-2 2-3v-14q0-11-9-19-17-15-27-35.5T104 210v-39q0-21 8-40t22-33 32.5-22 39.5-8 40 8 33 22 22 33 8 40v39q0 23-10 43.5T272 289q-9 8-9 19v14q0 2 2 3l94 34q23 8 34 30 2 2 2 4zm99-49q2 8-2.5 14t-12.5 8q-1 0-1.5.5t-2.5.5q-14 0-18-16l-15-74q-5-6-12-9l-95-34q-12-5-19.5-15.5T324 272v-14q0-14 6-26.5t17-21.5q23-21 23-49v-40q0-26-19-45t-45-19q-13 0-22 4-8 2-15-1t-9-11q-3-8 .5-15t10.5-9q16-6 35-6 21 0 39.5 8T378 49t22 32.5 8 39.5v40q0 23-9.5 43.5T371 239q-9 8-9 19v14q0 3 2 3l95 34q23 8 34 30 0 1 .5 2t.5 3z"/></svg>

<?xml version="1.0" encoding="UTF-8" standalone="no"?><svg   xmlns:svg="http://www.w3.org/2000/svg"   xmlns="http://www.w3.org/2000/svg"   version="1.1"   width="512"   height="512"   viewBox="0 0 512 512">  <path     d="M411 470Q413 478 408.5 484.5T396 493H392Q376 493 373 478L358 404Q353 397 347 394L252 361Q239 356 231.5 345.5T224 322V308Q224 280 247 259Q270 241 270 210V171Q270 144 251.5 125.5T206 107Q180 107 161 125.5T142 171V210Q142 239 166 260Q188 279 188 308V322Q188 335 180.5 345.5T161 361L66 394Q60 397 54 404L39 478Q37 486 31 490.5T17 493T4.5 484.5T2 470L18 393Q18 392 18.5 391T19 389Q30 367 53 359L148 325Q150 323 150 322V308Q150 297 141 289Q124 274 114 253.5T104 210V171Q104 150 112 131T134 98T166.5 76T206 68T246 76T279 98T301 131T309 171V210Q309 233 299 253.5T272 289Q263 297 263 308V322Q263 324 265 325L359 359Q382 367 393 389Q395 391 395 393zM510 421Q512 429 507.5 435T495 443Q494 443 493.5 443.5T491 444Q477 444 473 428L458 354Q453 348 446 345L351 311Q339 306 331.5 295.5T324 272V258Q324 244 330 231.5T347 210Q370 189 370 161V121Q370 95 351 76T306 57Q293 57 284 61Q276 63 269 60T260 49Q257 41 260.5 34T271 25Q287 19 306 19Q327 19 345.5 27T378 49T400 81.5T408 121V161Q408 184 398.5 204.5T371 239Q362 247 362 258V272Q362 275 364 275L459 309Q482 317 493 339Q493 340 493.5 341T494 344z"     id="org-users" /></svg>
